Sources/FrostedUI/Resources/Icons.xcassets/messageFilled24.imageset/message-filled-24.svg

<svg width="24" height="24" viewBox="0 0 24 24" fill="none" xmlns="http://www.w3.org/2000/svg" data-fui-icon="true">
  <path
    d="M12 1C18.0738 1 23 5.91761 23 11.9863C22.9998 18.0549 18.0737 22.9717 12 22.9717C10.416 22.9717 8.90733 22.6371 7.54395 22.0332C7.48315 22.0063 7.43907 22.0097 7.41895 22.0156L4.43164 22.8906C2.39211 23.4873 0.502037 21.5743 1.13574 19.541L2.02051 16.7021C2.02662 16.6823 2.03152 16.6374 2.00293 16.5752C1.35884 15.1777 1.00005 13.6223 1 11.9863C1 5.91761 5.92619 1 12 1Z"
    fill="currentColor"
  />
</svg>

<svg xmlns="http://www.w3.org/2000/svg" width="24" height="24" fill="none" data-fui-icon="true" viewBox="0 0 24 24"><path fill="currentColor" d="M12 1c6.074 0 11 4.918 11 10.986s-4.926 10.986-11 10.986c-1.584 0-3.093-.335-4.456-.939-.06-.027-.105-.023-.125-.017l-2.987.875c-2.04.596-3.93-1.317-3.296-3.35l.885-2.839c.006-.02.01-.065-.018-.127A10.9 10.9 0 0 1 1 11.986C1 5.918 5.926 1 12 1"/></svg>
